X:7893
T:La Pastoreta
C:anon.
O:Spain
A:Catalu\~na
Z:Transcribed by Frank Nordberg - http://www.musicaviva.com
F:http://abc.musicaviva.com/tunes/spain/la-pastoreta.abc
M:2/4
L:1/8
K:D
AGFG|A2Bc|d2e2|d2c2|
AGFG|A2Bc|d2B2|A4|
ABAG|FGFE|D2E2|F4|
ABAG|FGFE|D2E2|D2z2|
dcdc|dcdc|d2B2|A4|
dcdB|ABAG|F2E2|D2z2|
D2EF|A2AA|B2cd|A4|
d2cB|A2AA|B2A2|D2z2|]
W:
W:
W:  From Musica Viva - http://www.musicaviva.com
W:  the Internet center for free sheet music downloads.
